X:1
T:Title
%%score { ( 1 4 ) | ( 2 3 ) }
L:1/8
M:6/8
K:C
V:1 treble nm="Grand Piano"
V:4 treble 
V:2 bass 
V:3 bass 
V:1
 z3 z2[Q:1/4=100] [G,EG] | [G,EG]2 [G,EG] [G,EG]>[G,DF][G,CE] | [B,D]2 [B,DG] [B,DG]2 [B,DG] | %3
 [CGc]2 [CGc] [CFA]2 [B,DG] | [CE]3- [CE] z [CEG] | [G,EG]2 [G,EG] [G,EG]>[G,DF][G,CE] | %6
 [G,B,D]2 [B,DG] [B,DG]2 [B,DG] | [DGB]2 [DGB] [D^FB]2 [CFA] |[M:5/8] [B,G]- [B,G]3 z |[M:1/8] G | %10
[M:3/4] [Ec]2 [Ec][Ec]- [Ec]/[EB]/[EA] | [FB]2 [B,F] [B,F]2 [B,F] | A2 A B2 A | [EG]4 z [CE] | %14
 [^CA]2 [CA][CA]- [CA]/[CG]/[CE] | [DF]2 [EG] [FA]2 [FA] | z2 z d z2 | d4 z G | %18
 [Ec]2 [Ec][Ec]- [Ec]/[EB]/[EA] | [FB]2 [B,F] [B,F]2 [B,F] | A2 A B2 A | ^G4 z G | %22
 A2 A[^Fd]- [Fd]/[Fd]/[Fd] |[M:7/8] [FG]2 [FG] [Ec]3 ^F |[M:3/4] G2 e d2 G | %25
[M:5/8] [Ec]-[Ec]- [Ec]3 |] %26
V:2
 z3 z2 C, | C,2 C, C,>C,C, | G,2 G, G,2 F, | z z/[K:treble] d/[K:bass]E, F,2 G, | C,3- C, z C, | %5
 C,2 C, C,>C,C, | D,2 D, D,2 D, | z z/[K:treble] c/[K:bass]D, D,2 D, |[M:5/8] G,- G,3 z | %9
[M:1/8] G, |[M:3/4] [C,G,]2 [C,G,][C,G,]- [C,G,]/[C,G,]/[C,G,] | [D,G,]2 [G,,G,] [G,,G,]2 [G,,G,] | %12
 [G,B,F]2 [G,B,F] [G,DF]2 [G,B,F] | [C,C]4 z [C,G,] | %14
 [A,,A,]2 [A,,A,][A,,A,]- [A,,A,]/[A,,A,]/[A,,A,] | [D,A,]2 [D,A,] [D,D]2 [D,D] | %16
 [D,A,]2 .[D,A,]2[K:treble] cD, | [G,B,F]4 z[K:bass] G, | %18
 [C,G,]2 [C,G,][C,G,]- [C,G,]/[C,G,]/[C,G,] | [D,G,]2 [G,,G,] [G,,G,]2 [G,,G,] | %20
 [G,B,F]2 [G,B,F] [G,DF]2[K:bass] [F,B,_E] | [E,B,E]4 z [E,DE] | %22
 [A,^CE]2 [A,CG][K:bass][D,=C]- [D,C]/[D,C]/[D,C] | %23
[M:7/8] [G,B,]2 [G,B,] [C,C]3[K:treble] [^G,C_E] |[M:3/4] [G,CE]2 [G,CG] [G,B,F]2 [G,B,F] | %25
[M:5/8][K:bass] [C,G,C]-[C,G,C]- [C,G,C]3 |] %26
V:3
 x6 | x6 | x6 | .E,3[K:treble][K:bass] z3 | x6 | x6 | x6 | .D,3[K:treble][K:bass] z3 |[M:5/8] x5 | %9
[M:1/8] x |[M:3/4] x6 | x6 | x6 | x6 | x6 | x6 | z2 z .[D,A,]3[K:treble] | x5[K:bass] x | x6 | x6 | %20
 x5[K:bass] x | x6 | x3[K:bass] x3 |[M:7/8] x6[K:treble] x |[M:3/4] x6 |[M:5/8][K:bass] x5 |] %26
V:4
 x6 | x6 | x6 | x6 | x6 | x6 | x6 | x6 |[M:5/8] x5 |[M:1/8] x |[M:3/4] x6 | x6 | x6 | x6 | x6 | %15
 x6 | [^Fd]2 [Fd] F2 [CFA] | x6 | x6 | x6 | x6 | x6 | x6 |[M:7/8] x7 |[M:3/4] x6 |[M:5/8] x5 |] %26

